X:1
T:Title
%%score { 1 | 2 }
L:1/8
M:4/4
K:Db
V:1 treble nm="Grand Piano"
V:2 bass 
V:1
 z4 z2[Q:1/4=100] F2 | F3 E D2 F2 | [FA]3 [GB] [FA]2 [FA]2 | [Fd]3 [Fd] [GB][FA] [DF]2 | %4
[M:3/4] [CE]6 |[M:1/4] F2 |[M:4/4] F3 E D2 F2 | [FA]3 [GB] [FA]2 [Fd]2 | c3 A B2 =G2 | %9
[M:3/4] [CEA]6 |[M:1/4] [A,EG]2 |[M:4/4] [A,DF]3 [A,FA] [Fd]2 [Fd]2 | [Gc]3 [GB] [FA]2 [FA]2 | %13
 [GB]3 [Gc] [Fd]2 [A,DF]2 |[M:3/4] E6 |[M:1/4] F2 |[M:4/4] F3 E D2 [DF]2 | %17
[M:9/8] [DG]2 [DB]- [DB] d2- d B2 |[M:4/4] A3 F [CE]3 D |[M:3/4] D6 |[M:1/4] [Fd]2 | %21
[M:4/4] [Ac]3 [GB] [FA]2 [CGB]2 | [DFA]3 [A,DF] [FA]2 [FA]2 | [GB]3 [Gc] [Fd]2 [FA]2 | %24
[M:7/8] [DA]2 [DF]2 [CE]3 |[M:1/4] F2 |[M:4/4] F3 E D2 [DF]2 |[M:9/8] [DG]2 [DB]- [DB] d2- d B2 | %28
[M:4/4] A3 F [CE]3 D |[M:7/4] D6 z2 z2 z4 |] %30
V:2
 z4 z2 [D,A,D]2 | [D,A,D]3 [D,G,D] [D,F,]2 [D,A,D]2 | [D,D]3 [D,D] [D,D]2 [D,D]2 | %3
 [D,A,]3 [D,A,] [D,D]2 [D,A,]2 |[M:3/4] [A,,A,]6 |[M:1/4] [D,A,D]2 | %6
[M:4/4] [D,A,D]3 [D,G,D] [D,F,]2 [D,A,D]2 | [D,D]3 [D,D] [D,D]2 [D,A,]2 | %8
 [E,A,E]3 [E,CE] [E,DE]2 [E,DE]2 |[M:3/4] A,,6 |[M:1/4] C,2 |[M:4/4] D,3 D, [D,A,]2 [D,A,]2 | %12
 [D,G,]3 [D,G,] [D,A,]2 [D,D]2 | [G,D]3 [E,A,] [D,A,]2 D,F, |[M:3/4] [A,C]6 |[M:1/4] [D,A,D]2 | %16
[M:4/4] [D,A,D]3 [D,G,D] [D,F,]2 [_C,A,]2 | %17
[M:9/8] [B,,G,]2 [G,,G,]- [G,,G,] [G,B,D]2- [G,B,D][K:treble] [G,DG]2 | %18
[M:4/4] [A,DF]3[K:bass] [A,D] [A,,G,]3 [D,F,] |[M:3/4] [D,F,]6 |[M:1/4] [D,A,]2 | %21
[M:4/4] [A,,A,]3 [A,,A,] [A,,A,]2 A,,2 | D,3 D, [D,D]2 [D,D]2 | [G,D]3 [E,A,] [D,A,]2 [D,A,]2 | %24
[M:7/8] [F,A,]2 [D,A,]2 [A,,A,]3 |[M:1/4] [D,A,D]2 |[M:4/4] [D,A,D]3 [D,G,D] [D,F,]2 [_C,A,]2 | %27
[M:9/8] [B,,G,]2 [G,,G,]- [G,,G,] [G,B,D]2- [G,B,D][K:treble] [G,DG]2 | %28
[M:4/4] [A,DF]3[K:bass] [A,D] [A,,G,]3 [D,F,] |[M:7/4] [D,F,]6 z2 z2 z4 |] %30

